packages/tokens/icons/laptop/size32Px.svg

<svg viewBox="0 0 28 19" fill="none" xmlns="http://www.w3.org/2000/svg" width="1em" height="1em"><path d="M25.5 17L25.5 2.5C25.5 1.39543 24.6046 0.5 23.5 0.5L4.5 0.5C3.39543 0.5 2.5 1.39543 2.5 2.5L2.5 17" stroke="currentColor"/><path d="M0.5 16.5L27.5 16.5V17C27.5 17.8284 26.8284 18.5 26 18.5L2 18.5C1.17157 18.5 0.5 17.8284 0.5 17L0.5 16.5Z" stroke="currentColor"/><path d="M10.5 1C10.5 0.723858 10.7239 0.5 11 0.5L17 0.5C17.2761 0.5 17.5 0.723858 17.5 1V2C17.5 2.27614 17.2761 2.5 17 2.5L11 2.5C10.7239 2.5 10.5 2.27614 10.5 2V1Z" stroke="currentColor"/></svg>

<svg xmlns="http://www.w3.org/2000/svg" fill="none" viewBox="0 0 28 19" width="1em" height="1em"><path stroke="currentColor" d="M25.5 17V2.5a2 2 0 0 0-2-2h-19a2 2 0 0 0-2 2V17"/><path stroke="currentColor" d="M.5 16.5h27v.5a1.5 1.5 0 0 1-1.5 1.5H2A1.5 1.5 0 0 1 .5 17v-.5ZM10.5 1a.5.5 0 0 1 .5-.5h6a.5.5 0 0 1 .5.5v1a.5.5 0 0 1-.5.5h-6a.5.5 0 0 1-.5-.5V1Z"/></svg>
